X: 339
T:gan ainm jig 29mar01
R:jig
H:This comes after Andy McGann's Fancy. He and Andy played them at the
Bunratty in the Bronx.
Z:Lesl from the playing of Mike Rafferty
M:6/8
K:G
dcA G~G2|ABA G2z|dcA G~G2|ADE FGA|
dcA G~G2|ABA g~g2|fzd edd|fed cAd||
cAF G~G2|ABA G2z|dcA G~G2|ADE FGA|
dcA G~G2|ABA gzg|fdd edd|fed cAF||
|:GBd g~g2|gaf g2z|dgg dgg|azg fga|
bgb afa|gfe fze|dcA dze|1 fed cAF:|2 fed cAd|cAF G3||

% Output from ABC2Win  Version 2.1 k preview on 01/05/2001

